!!!!SEGMENT: pl-cz--iii-50--012_brykner-jerzy--vesperae-domine-probasti-me.krn
!!!cenid: 17xx:854
!!!COM: Brykner, Jerzy
!!!COM-rismid: pe30025739
!!!CDT: 1705-1760
!!!CNT: Polish
!!!OTL: Vesperae – Domine probasti me
!!!PDT:
!!!AGN: Sacred; Vespers
!!!SMS-siglum: PL-CZ
!!!SMS-shelfmark: III-50
!!!SMS-shelfwork: 001-012 M
!!!SMS-variant:
!!!SMS-altvar:
!!!NIFC-rismid: 300033583
!!!URL-scan: http://repozytorium.nifc.pl/skany/pl-cz-nut--iii-50
!!!ONB-nifc: UWAGA: części Vesperae: Dixit Dominus, Confitebor, Beatus vir,
**kern	**fba	**kern	**kern	**kern	**text	**kern	**text
*part5	*	*part4	*part3	*part2	*part2	*part1	*part1
*	*	*group2	*group2	*group1	*	*group1	*
*staff5	*	*staff4	*staff3	*staff2	*staff2	*staff1	*staff1
*I"Organo	*	*I"Violino Secundo	*I"Violino Primo	*I"Basso	*	*I"Canto	*
*I'org	*	*I'vl 2	*I'vl 1	*I'B	*	*I'S	*
*clefF4	*	*clefG2	*clefG2	*clefF4	*	*clefC1	*
*k[f#c#g#]	*	*k[f#c#g#]	*k[f#c#g#]	*k[f#c#g#]	*	*k[c#f#g#]	*
*A:	*	*A:	*A:	*A:	*	*A:	*
*M4/4	*	*M4/4	*M4/4	*M4/4	*	*M4/4	*
*met(c)	*	*met(c)	*met(c)	*met(c)	*	*met(c)	*
=1	=1	=1	=1	=1	=1	=1	=1
*	*	*all\right	*	*	*	*	*
!LO:TX:a:t=Solo.	!	!	!	!	!	!	!
!LO:TX:a:t=Moderato.	!	!	!	!LO:TX:a:t=1.	!	!	!
!LO:TX:b:t=Domine probâsti.	!	!LO:TX:b:t=Domine probasti	!LO:TX:b:t=Domine probasti	!LO:TX:b:t=Domine probâsti.	!	!LO:TX:a:t=P:problem:krzyżyk c# oktawę wyżej	!
4A\	.	1r	1r	1r	.	16a\	Do-
.	.	.	.	.	.	16a\	-mi-
.	.	.	.	.	.	16a\	-ne
.	.	.	.	.	.	16a\	pro-
4G#\	.	.	.	.	.	16a\LL	-bâ-
.	.	.	.	.	.	16g#\JJ	.
.	.	.	.	.	.	16a\LL	-sti
.	.	.	.	.	.	16b\JJ	.
8F#\L	.	.	.	.	.	8a\	me,
8C#\	6	.	.	.	.	8ee\	et
8D\	6 5	.	.	.	.	16b\LL	co-
.	.	.	.	.	.	16dd\JJ	.
8E\J	.	.	.	.	.	16cc#\LL	-gno-
.	.	.	.	.	.	16b\JJ	.
=2	=2	=2	=2	=2	=2	=2	=2
8A\L	.	4r	4r	4r	.	8.cc#\	-vi-
8E\J	.	.	.	.	.	.	.
.	.	.	.	.	.	16b\	-sti
!LO:TX:t=P:problem:mixed beam	!	!	!	!	!	!	!
8AA/L	.	8r	8r	8r	.	8a,\	me
8A\J	.	8cc#\	8ee\	8A\	Tu	8cc#\	tu
!LO:TX:a:t=Tutti.	!	!	!	!	!	!	!
16G#\LL	.	16b\LL	16ee\LL	16G#\LL	co-	16b\LL	co-
16A\	.	16cc#\	16ee\	16A\JJ	.	16cc#\JJ	.
16B\	.	16dd\	16ee\	16B\LL	-gno-	16dd\LL	-gno-
16G#\JJ	.	16b\JJ	16ee\JJ	16G#\JJ	.	16b\JJ	.
8A\L	.	16cc#\LL	16ee\LL	8A\	-vi-	8cc#\	-vi-
.	.	16a\J	16ee\	.	.	.	.
8F#\J	6	8dd\J	16aa\	8F#\	-sti	8dd\	-sti
.	.	.	16aa\JJ	.	.	.	.
=3	=3	=3	=3	=3	=3	=3	=3
8E\L	7	16dd\LL	16gg#\LL	16E\	seſ-	16dd\	ses-
.	.	16dd\	16ff#\	16D\	-si-	16dd\	-si-
8E\	6	16cc#\	16gg#\	16E\	-o-	16cc#\	-o-
.	.	16cc#\JJ	16ee\JJ	16C#/	-nem	16cc#\	-nem
8D\	7	16cc#\LL	16ff#\LL	16D/LL	me-	8cc#\	me-
.	.	16cc#\	16ee\	16C#/JJ	.	.	.
!	!	!	!	!	!	!LO:TX:b:t=P:problem:podwójny przecinek jako łamanie sylab między systemami	!
!	!	!	!	!	!	!LO:SIC:v:custos b	!
!	!	!	!	!	!	!LO:LB:g=original	!
8D\J	6	16b\	16ff#\	16D,/	-a(m)	16b,\	-am
.	.	16b\JJ	16dd\JJ	16BB/	et	16b\	et
!LO:TX:t=P:problem:mixed beam	!	!	!	!	!	!	!
8C#/L	.	16b/LL	16ee\LL	16C#/	re-	16b\	re-
.	.	16b/	16ff#\	16D/	-sur-	16b\	-sur-
8C#/	6	16a/	16gg#\	16E/	-re-	16b\	-re-
.	.	16a/JJ	16ee\JJ	16C#/	-cti-	16b\	-cti-
8F#\	.	8a/L	8aa\L	8F#\	-o-	8a\	-o-
8D\J	.	8dd/J	16gg#\L	8D\	-nem	8b\	-nem
.	.	.	16ff#\JJ	.	.	.	.
!	!	!	!	!LO:LB:g=original	!	!	!
=4	=4	=4	=4	=4	=4	=4	=4
*2\right	*	*Xtuplet	*	*2\right	*	*	*
!	!	!LO:TUP:a:problem:klamra łukowa:global	!	!	!	!	!
2E\	6 4	24cc#\LL	4aa\	2E\	me-	(4a\	me-
.	.	24ee\	.	.	.	.	.
.	.	24dd\JJ	.	.	.	.	.
.	.	24cc#\LL	.	.	.	.	.
.	.	24b\	.	.	.	.	.
.	.	24a\JJ	.	.	.	.	.
.	5 3	4b/	4gg#t\	.	.	4g#\)	.
!LO:TX:a:t=S&colon;	!	!	!	!	!	!	!
4.AA/	.	4a/	4aa\	4AA/	-a(m).	4a\	-am.
.	.	8a/L	8cc#\L	16AA/LL	In-	4r	.
.	.	.	.	16BB/JJ	.	.	.
8C#/	.	8a/J	8cc#\J	16C#/LL	-tel-	.	.
.	.	.	.	16D/JJ	.	.	.
!	!	!LO:LB:g=original	!	!	!	!	!
=5	=5	=5	=5	=5	=5	=5	=5
!	!	!	!	!	!	!LO:TX:a:t=1.	!
8E\L	.	16g#/LL	16b\LL	16E\LL	-le-	1r	.
.	.	16a/	16b\	16F#\JJ	.	.	.
8E\	.	16b/	16ee\	16G#\	-xi-	.	.
.	.	16g#/JJ	16dd\JJ	16E\	-sti	.	.
8A\	.	8cc#\L	16cc#\LL	16A\	co-	.	.
.	.	.	16cc#\	16A\	-gi-	.	.
8B\J	.	8b\J	16dd\	16B\	-ta-	.	.
.	.	.	16dd\JJ	16B\	-ti-	.	.
8c#\L	6	16a/LL	8ee\L	8c#\	-o-	.	.
.	.	16e/	.	.	.	.	.
8G#\	6	16b/	8ee\	8G#\	-nes	.	.
.	.	16e/JJ	.	.	.	.	.
8A\	.	8cc#\L	8ee\	8A\	me-	.	.
8G#\J	.	8b\J	8ee\J	16G#\	-as	.	.
.	.	.	.	16G#\	de	.	.
!LO:LB:g=original	!	!	!	!	!	!	!
=6	=6	=6	=6	=6	=6	=6	=6
2F#\	7	2a/	8ee\L	2F#\	lon-	2r	.
.	6\	.	16dd#X\L	.	.	.	.
.	.	.	16cc#\JJ	.	.	.	.
.	.	.	4dd#t\	.	.	.	.
4E\	.	4g#/	4ee\	4E\	-gè.	8b\	Se-
.	.	.	.	.	.	16b\	-mi-
.	.	.	.	.	.	16b\	-ta(m)
!	!	!	!LO:TX:b:t=V. S.	!	!	!	!
4A\	.	4r	4r	4r	.	8cc#\	me-
.	.	.	.	.	.	8cc#\	-am,
!	!	!	!LO:PB:g=original	!	!	!	!
=7	=7	=7	=7	=7	=7	=7	=7
!	!	!LO:TX:a:t=P:problem:pauza 00r nie zakolorowana w środku	!	!LO:TX:a:t=1.	!	!	!
4F#\	6\	00r	00r	1r	.	8dd#X\	et
.	.	.	.	.	.	8dd#\	fu-
8E\L	.	.	.	.	.	8ee\	-ni-
8A\J	6	.	.	.	.	16ff#\	-cu-
.	.	.	.	.	.	16ff#\	-lum
4A\	+4r 2	.	.	.	.	8dd#X\	me-
.	.	.	.	.	.	16b\	-u(m)
.	.	.	.	.	.	16b\	in
8G#\L	6	.	.	.	.	8ee\	ve-
8E\J	.	.	.	.	.	8g#/	-sti,
!	!	!	!	!	!	!LO:LB:g=original	!
=8	=8	=8	=8	=8	=8	=8	=8
8D#X\L	6 5	.	.	4r	.	16a\LL	gâ-
.	.	.	.	.	.	16f#\	.
8E\J	.	.	.	.	.	16g#\	.
.	.	.	.	.	.	16e\JJ	.
4BB/	4	.	.	16r	.	4f#/	.
.	#	.	.	16B\	Et	.	.
.	.	.	.	16B\	om-	.	.
.	.	.	.	16A\	-nes	.	.
!	!	!	!	!LO:SIC:v:custos G	!	!	!
!LO:TX:t=P:problem:mixed beam	!	!	!	!LO:LB:g=original	!	!	!
8E\L	.	.	.	8G#\	vi-	4e/	-sti,
8AA/J	.	.	.	8c#\	-as	.	.
4BB/	9	.	.	8c#\	me-	8r	.
.	8 #	.	.	16B\LL	-as	16dd#X\	Qui-
.	7	.	.	16A\JJ	.	16dd#\	-a
=9	=9	=9	=9	=9	=9	=9	=9
8C#/L	5	.	.	16G#\LL	prae-	8ee\	non
.	6	.	.	16A#X\JJ	.	.	.
8BB/J	#	.	.	8B\	-vi-	8dd#X\	eſt
8E\L	6 5	.	.	8B\L	-di-	8cc#\	ſer-
8F#\J	#	.	.	8A#\J	.	16cc#\	-mo
.	.	.	.	.	.	16cc#\	in
4B\	.	.	.	4B\	-sti,	16dd#X\	ling-
.	.	.	.	.	.	16cc#\	-ua
.	.	.	.	.	.	16dd#\	me-
.	.	.	.	.	.	16b\	-a.
4G#\	6	.	.	4r	.	8.ee\	Ec-
.	.	.	.	.	.	16dd#X\	-ce
=10	=10	=10	=10	=10	=10	=10	=10
4A\	.	.	.	8r	.	16cc#\	Do-
.	.	.	.	.	.	16cc#\	-mi-
.	.	.	.	16c#\	Tu	16cc#\	-ne
.	.	.	.	16B\	for-	16cc#\	tu
4F#\	6\	.	.	16A\	-mâ-	8dd#X\	co-
.	.	.	.	16A\	-sti	.	.
.	.	.	.	16A\	me,	8cc#\	-gno-
.	.	.	.	16A\	et	.	.
8G#\L	#	.	.	8G#\	po-	8b#X\	-vi-
8c#\J	.	.	.	8c#\	-su-	8cc#\	-sti
!	!	!	!	!	!	!LO:SIC:v:custos dd#	!
!	!	!	!	!	!	!LO:LB:g=original	!
4G#\	#	.	.	8B#X\	-i-	16dd#X\	om-
.	.	.	.	.	.	16g#\	-ni-
.	.	.	.	16B#,\	-sti	16g#\	-a
.	.	.	.	16B#\	su-	16g#\	no-
=11	=11	=11	=11	=11	=11	=11	=11
8F#\L	#	1r	1r	8c#\	-per	8a#X\	-viſ-
8G#\	#	.	.	8B\	me	16b#X\	-si-
.	.	.	.	.	.	16b#\	-ma,
!	!	!	!	!LO:SIC:v:custos A	!	!	!
!	!	!	!	!LO:LB:g=original	!	!	!
8A\	.	.	.	8A\	ma-	8cc#\	et
8F#\J	.	.	.	16G#\LL	-num	8dd#X\	an-
.	.	.	.	16F#\JJ	.	.	.
4G#\	4	.	.	(4E\	tu-	(4cc#\	-ti-
4GG#/	#	.	.	4D#X\)	.	4b#X\)	.
=12	=12	=12	=12	=12	=12	=12	=12
4C#/	.	8r	8r	8C#/	-am,	8cc#,\	-qua,
.	.	8cc#\L	8gg#\	8C#/	mi-	8cc#\	mi-
!LO:TX:a:t=T&colon;	!	!	!	!	!	!	!
4D#X/	7	8cc#\	16ff#\LL	8D#X/	-ra-	8cc#\	-ra-
.	.	.	16ee\	.	.	.	.
.	6\	8b#X\J	16ff#\	16D#/	-bi-	16b#X\	-bi-
.	.	.	16dd#X\JJ	16D#/	-lis	16b#\	-lis
4E\	6	8cc#\L	8gg#\L	16E\	fac-	16cc#\	fac-
.	.	.	.	16E\	-ta	16cc#\	-ta
.	.	8ee\	8gg#\	16E\	e(st)	16cc#\	e(st)
.	.	.	.	16E\	sci-	16cc#\	sci-
4F#\	6	8dd#X\	8aa\	8F#\	-en-	8dd#X\	-en-
.	.	8dd#\J	8aa\J	16F#\	-ti-	16cc#\	-ti-
.	.	.	.	16F#\	-a	16dd#\	-a
!LO:LB:g=original	!	!	!	!	!	!	!
=13	=13	=13	=13	=13	=13	=13	=13
4G#\	#	4b#X/	16gg#\LL	8G#\	tu-	8b#X\	tu-
.	.	.	16ff#\	.	.	.	.
.	.	.	16ee\	16GG#/	-a	16b#\	-a
.	.	.	16dd#X\JJ	16GG#/	ex	16b#\	ex
!LO:TX:t=P:problem:mixed beam	!	!	!	!	!	!	!
8C#/L	.	8cc#\L	8ee\L	8C#/	me	8cc#\	me
8c#\J	.	8ee\J	16gg#\L	16c#\	con-	16ee\	con-
.	.	.	16aa\JJ	16c#\	-for-	16ee\	-for-
!	!	!	!	!	!	!LO:TX:b:t=P:problem:podwójny przecinek jako łamanie sylab między systemami	!
!	!	!	!	!	!	!LO:SIC:v:custos ee	!
!	!	!	!	!	!	!LO:LB:g=original	!
8G#\L	6	8b#X/L	8bb\L	8G#\	-ta-	8ee\	-ta-
8A\	.	8cc#/	16aa\L	8A\	-ta	8ff#\	-ta
.	.	.	16gg#\JJ	.	.	.	.
8B\	#	8dd#X/	8ff#\L	8B\	e(st),	8dd#X\	est,
8F#\J	6	8a/J	8aa\J	16F#\	et	16dd#\	et
.	.	.	.	16F#\	non	16dd#\	non
!	!	!	!	!LO:LB:g=original	!	!	!
=14	=14	=14	=14	=14	=14	=14	=14
!LO:TX:t=P:problem:mixed beam	!	!	!	!	!	!	!
8G#\L	6	8b/L	8gg#\L	16G#\	po-	16ee\	po-
.	.	.	.	16G#\	-te-	16ee\	-te-
8A\	.	16cc#/L	16ff#\L	16A\	-ro	16cc#\	-ro
.	.	16a/JJ	16ee\JJ	16A\	ad	16cc#\	ad
!	!	!	!	!LO:TX:t=P:problem:mixed beam	!	!	!
8B\	.	4f#/	4dd#X\	8B\L	e-	4dd#X\	e-
8BB/J	#	.	.	8BB/J	.	.	.
4E\	7	4g#/	4ee\	4E\	-am.	8ee\	-am.
.	.	.	.	.	.	8ee\	Quo
!LO:TX:a:t=S.	!	!	!	!	!	!	!
4F#\	.	4r	4r	4r	.	8ee\	i-
.	.	.	.	.	.	16dd#X\	-bo
.	.	.	.	.	.	16cc#\	à
!	!	!LO:LB:g=original	!	!	!	!	!
=15	=15	=15	=15	=15	=15	=15	=15
!LO:TX:t=P:problem:mixed beam	!	!	!	!LO:TX:a:t=1.	!	!	!
8G#\L	6	00r	00r	1r	.	8b\	Spi-
8D#X\	6 5	.	.	.	.	16a\	-ri-
.	.	.	.	.	.	16a\	-tu
8E\	.	.	.	.	.	8g#\	tu-
8EE/J	.	.	.	.	.	16e/	-o,
.	.	.	.	.	.	16e/	et
4r	.	.	.	.	.	8g#\	quȯ
.	.	.	.	.	.	8b\	à
8r	.	.	.	.	.	[4ddn\	fa-
8E\	n7	.	.	.	.	.	.
=16	=16	=16	=16	=16	=16	=16	=16
4F#\	6	.	.	2r	.	8dd\]	.
.	.	.	.	.	.	16ee\	-ci-
.	.	.	.	.	.	16dd\	-e
!LO:TX:t=P:problem:mixed beam	!	!	!	!	!	!	!
8G#\L	.	.	.	.	.	8cc#\	tu-
8E\	.	.	.	.	.	8b\	-a
!	!	!	!	!	!	!LO:LB:g=original	!
8A\	.	.	.	8r	.	16cc#\	fu-
.	.	.	.	.	.	16b\	-gi-
8AA/J	.	.	.	16C#/	Si	8a\	-am.
.	.	.	.	16D/	as-	.	.
8r	.	.	.	16E\	-cen-	4r	.
.	.	.	.	16E\	-de-	.	.
8AA/	.	.	.	16E\	-ro	.	.
.	.	.	.	16F#\	in	.	.
=17	=17	=17	=17	=17	=17	=17	=17
!	!	!	!	!	!	!LO:TX:a:t=1.	!
4BB/	n6	.	.	8Gn\	cae-	1r	.
.	.	.	.	16G\	-lum	.	.
.	.	.	.	16G\	tu	.	.
4C#/	5	.	.	8G\	il-	.	.
.	.	.	.	16F#\LL	-lic	.	.
.	.	.	.	16E\JJ	.	.	.
4D/	.	.	.	8F#\	a-	.	.
.	.	.	.	8D\	-des,	.	.
4D#X\	6 5	.	.	8r	.	.	.
.	.	.	.	16B\	si	.	.
.	.	.	.	16A\	de-	.	.
!	!	!	!	!LO:TX:b:t=P:problem:podwójny przecinek jako łamanie sylab między systemami	!	!	!
!	!	!	!	!LO:SIC:v:custos G#	!	!	!
!	!	!	!	!LO:LB:g=original	!	!	!
=18	=18	=18	=18	=18	=18	=18	=18
8E\L	#	.	.	16G#\	-scen-	4r	.
.	.	.	.	16F#\	-de-	.	.
8G#\	.	.	.	16E\LL	-ro	.	.
.	.	.	.	16D\JJ	.	.	.
!	!	!	!	!LO:SIC:v:l:s=ad	!	!	!
8A\	.	.	.	8C#/	in	8r	.
8E\J	.	.	.	8BB/	in	16ee\LL	Si
.	.	.	.	.	.	16dd\JJ	.
!LO:SIC:v:custos AA	!	!	!	!	!	!	!
!LO:LB:g=original	!	!	!	!	!	!	!
!LO:TX:t=P:problem:mixed beam	!	!	!	!	!	!	!
8AA/L	.	.	.	8AA/	fer-	8cc#\	ſump-
8D\J	.	.	.	8D\	-nu(m)	16b\	-se-
.	.	.	.	.	.	16a\	-ro
4E\	4	.	.	4E\	a-	8a\	pen-
.	3	.	.	.	.	8g#\	-(n)as
=19	=19	=19	=19	=19	=19	=19	=19
!LO:TX:t=P:problem:mixed beam	!	!	!	!	!	!	!
8AA/L	.	00r	00r	4AA/	-des.	8a\	me-
8A\J	.	.	.	.	.	16a,\	-as
.	.	.	.	.	.	16a\	di-
4Gn\	3	.	.	4r	.	8b\	-lu-
.	4	.	.	.	.	8cc#\	-cu-
4F#\	6	.	.	8A\	E-	8dd\	-lo,
.	.	.	.	16A\	-te-	8ff#\	et
.	.	.	.	16A\	-nim	.	.
4Gn\	6	.	.	8B\	il-	16ee\LL	ha-
.	.	.	.	.	.	16ff#\JJ	.
.	.	.	.	8B\	-luc	16ee\LL	-bi-
.	.	.	.	.	.	16dd\JJ	.
=20	=20	=20	=20	=20	=20	=20	=20
4A\	9	.	.	8B\	ma-	8cc#\	-ta-
.	8	.	.	16A\LL	.	16cc#\	-ve-
.	.	.	.	16Gn\JJ	.	16cc#\	-ro
8B\L	.	.	.	8F#\	.	8dd\	in
8G#\J	.	.	.	16B\LL	-nus	8ee\	ex-
.	.	.	.	16G,\JJ	.	.	.
8A\L	.	.	.	8E\	tu-	8cc#\	-tre-
8D\J	.	.	.	16F#\	-a	16dd\L	-mis
.	.	.	.	16Gn\	de-	16b\J	.
4AA/	.	.	.	8.E\	-du-	4cc#\	ma-
.	.	.	.	16D\	-cet	.	.
!	!	!	!	!	!	!LO:TX:b:t=P:problem:podwójny przecinek jako łamanie sylab między systemami	!
!	!	!	!	!	!	!LO:LB:g=original	!
=21	=21	=21	=21	=21	=21	=21	=21
2D\	3	.	.	8D\	me,	4dd\	-ris,
.	.	.	.	16F#\	et	.	.
.	.	.	.	16F#\	te-	.	.
!	!	!	!	!LO:LB:g=original	!	!	!
.	6	.	.	8B\	-ne-	8r	.
.	.	.	.	16A\	-bit	8dd\	Et
.	.	.	.	16A\	me	.	.
!LO:TX:a:t=P:problem:skreślone cyfrowanie	!	!	!	!	!	!	!
8E\L	.	.	.	8G#\	dex-	8dd\	di-
8A\J	.	.	.	16A\	-te-	8cc#\	-xi
.	.	.	.	16A\	-ra	.	.
4E\	4	.	.	8A\L	tu-	[4b\	for-
.	3	.	.	8G#\J	.	.	.
=22	=22	=22	=22	=22	=22	=22	=22
4F#\	4	.	.	16A\	-a,	8b\]	.
.	.	.	.	16A\	et	.	.
.	3	.	.	16A\	nox	16a\	-si-
.	.	.	.	16A\	il-	16a\	-tan
4G#\	9	.	.	8B\	-lu-	8a\	te-
.	8	.	.	8B\	-mi-	16g#\	-ne-
.	.	.	.	.	.	16g#\	-brae
4A\	9	.	.	8B\	-na-	8cc#\	con-
.	8	.	.	16A\	-ti-	8dd#X\	-cul-
.	.	.	.	16A\	-o	.	.
8G#\L	6	.	.	16B\	me-	4ee\	-ca-
.	.	.	.	16B\	-a	.	.
8F#\J	.	.	.	16A\	in	.	.
.	.	.	.	16A\	de-	.	.
=23	=23	=23	=23	=23	=23	=23	=23
!	!	!	!	!	!	!LO:N:xstem:cue	!
8E\L	.	2r	2r	8G#\	-li-	8ee\	.
8A\J	.	.	.	16F#\	-ci-	16dd#X\L	.
.	.	.	.	16E\	-is	16cc#\J	.
4B\	#	.	.	4F#\	me-	8.dd#\	.
.	.	.	.	.	.	16dd#\	-bunt
4E\	.	8r	8r	8E\	-is,	8ee,\	me,
.	.	8b/	8gg#\L	16E\	qui-	16ee\	qui-
.	.	.	.	16E\	-a	16ee\	-a
!LO:TX:a:t=T&colon;	!	!	!	!LO:LB:g=original	!	!	!
8E\L	4 2	8cc#\L	8aa\	8E\	te-	8ff#\	te-
[8D\J	.	16dd\L	8bb\J	16D\	-ne-	16ff#\	-ne-
.	.	16cc#\JJ	.	16D\	-brae	16ff#\	-brae
!	!	!	!LO:LB:g=original	!	!	!	!
=24	=24	=24	=24	=24	=24	=24	=24
8D\L]	4 2	8b\L	8gg#\L	8D/	non	8ee\	non
8C#\	6	8ee\J	8aa\J	8C#/	ob-	8a\	ob-
8D\	6	8ff#\L	16ff#\LL	8D/	-scu-	8b\	-scu-
.	.	.	16ee\	.	.	.	.
8E\J	6	8ee\J	16ff#\	8E\	-ra-	8cc#\	-ra-
.	.	.	16gg#\JJ	.	.	.	.
8F#\L	6	8dd\L	16aa\LL	8F#\	-bun-	8dd\	-bu(n)-
.	.	.	16gg#\	.	.	.	.
8G#\	6	16ee\L	16aa\	16G#\	-t(ur)	16ee\	-tur
.	.	16dd\JJ	16bb\JJ	16G#\	â	16dd\	ă
!	!	!	!	!	!	!LO:SIC:v:custos cc	!
!	!	!	!	!	!	!LO:LB:g=original	!
8A\	.	8cc#\L	8ccc#\L	8A\	te,	8cc#\	te,
8c#\J	.	8ee\J	8aa\J	8c#\	et	8ee\	et
!LO:LB:g=original	!	!	!	!	!	!	!
=25	=25	=25	=25	=25	=25	=25	=25
8d\L	.	8ff#\L	16aa\LL	8d\	nox	8ff#\	nox
.	.	.	16aa\	.	.	.	.
16c#\L	.	16ee\L	16aa\	16c#\	si-	16ee\	si-
16B\JJ	.	16dd\JJ	16aa\JJ	16B\	-cut	16dd\	-cut
8c#\L	6	8ee\L	16aa\LL	8c#\	di-	8ee\	di-
.	.	.	16aa\	.	.	.	.
16B\L	.	16dd\L	16aa\	16B\	-es	16dd\	-es
16A\JJ	.	16cc#\JJ	16aa\JJ	16A\	il-	16cc#\	il-
8B\L	.	8dd\L	8gg#\L	8B\	-lu-	8dd\	-lu-
8G#\	.	16ee\L	8bb\	8G#\	-mi-	16cc#\LL	-mi-
.	.	16dd\JJ	.	.	.	16b\JJ	.
8A\	.	8cc#\L	8aa\	8A\	-na-	8cc#\	-na-
8E\J	.	16b\L	8gg#\J	16E\	-bi-	16b\	-bi-
.	.	16ee\JJ	.	16E\	-tur,	16b\	-tur,
=26	=26	=26	=26	=26	=26	=26	=26
8C#/L	6	16ee\LL	8aa\L	8C#/	si-	8ee\	ſi-
.	.	16dd\	.	.	.	.	.
.	.	.	.	.	.	8qqdd/	.
8C#/	.	16cc#\	[8aa\J	8C#/	-cut	8cc#\	-cut
.	.	16b\JJ	.	.	.	.	.
.	.	.	.	.	.	8qqb/	.
!	!	!	!	!LO:SIC:v:custos F	!	!	!
!	!	!	!	!LO:LB:g=original	!	!	!
8F#/	7	8a/L	16aa\LL]	8F#\	te-	8a\	te-
.	.	.	16gg#\	.	.	.	.
8F#/J	6	[>8dd/J	16ff#\	16F#\	-ne-	16a\	-ne-
.	.	.	16ee\JJ	16F#\	-brae	16a\	-brae
!LO:TX:t=P:problem:mixed beam	!	!	!	!	!	!	!
8BB/L	.	16dd\LL]	16dd\LL	8BB/	e-	8dd\	e-
.	.	16cc#\	16aa\	.	.	.	.
8BB/	.	16b\	16gg#\	8BB/	-jus,	16b\LL	-jus,
.	.	16a\JJ	16ff#\JJ	.	.	16a\JJ	.
*	*	*	*Xtuplet	*	*	*	*
8E\	.	8b/L	24gg#\LL	8E\	i-	8g#\	i-
.	.	.	24ff#\	.	.	.	.
.	.	.	24ee\JJ	.	.	.	.
8F#\J	6	16a/L	24aa\LL	16F#\	-tâ,	16a\	-tà
.	.	.	24gg#\	.	.	.	.
.	.	16dd/JJ	.	16F#\	et	16dd\	et
.	.	.	24ff#\JJ	.	.	.	.
!	!	!LO:LB:g=original	!LO:LB:g=original	!	!	!	!
=27	=27	=27	=27	=27	=27	=27	=27
2E\	4	4cc#\	4aa\	8E\	lu-	8cc#\	lu-
.	.	.	.	8E\	-men	16b\LL	-men
.	.	.	.	.	.	16a\JJ	.
.	3	4b/	4gg#\	4E\	e-	4b\	e-
!	!	!	!LO:TX:t=P:problem:mixed beam	!	!	!	!
4AA/	.	8a/L	8aa\L	4AA/	-jus.	4a\	-jus
.	.	8c#/J	8a/	.	.	.	.
!LO:TX:a:t=S&colon;	!	!	!	!	!	!	!
8D\L	6	8d/L	8b/	4r	.	4r	.
8E\J	.	8B/J	8g#/J	.	.	.	.
!	!	!	!	!	!	!LO:LB:g=original	!
=28	=28	=28	=28	=28	=28	=28	=28
!LO:TX:t=P:problem:mixed beam	!	!	!	!LO:TX:a:t=2.	!	!	!
8AA/L	.	4c#/	4a/	0r	.	8ee\	Qui-
8A\	.	.	.	.	.	16cc#\	-a
.	.	.	.	.	.	16b\	tu
8F#\	.	4r	4r	.	.	16a\LL	poſ-
.	.	.	.	.	.	16g#\JJ	.
8E\J	.	.	.	.	.	16a\LL	-se-
.	.	.	.	.	.	16g#\JJ	.
8F#\L	.	2r	2r	.	.	8a\	-di-
8C#\	.	.	.	.	.	8a\	-sti
8D\	6 5	.	.	.	.	16b\LL	re-
.	.	.	.	.	.	16dd\JJ	.
8E\J	.	.	.	.	.	16cc#\LL	-nes
.	.	.	.	.	.	16b\JJ	.
=29	=29	=29	=29	=29	=29	=29	=29
4AA/	.	0r	0r	.	.	16cc#\LL	me-
.	.	.	.	.	.	16b\JJ	.
.	.	.	.	.	.	8a\	-os,
4D/	.	.	.	.	.	8ff#\	ſu-
.	.	.	.	.	.	16dd\LL	-sce-
.	.	.	.	.	.	16cc#\JJ	.
4.D#X/	6	.	.	.	.	16b\LL	-pi-
.	.	.	.	.	.	16a#X\JJ	.
.	.	.	.	.	.	16b\LL	-sti
.	.	.	.	.	.	16a#\JJ	.
.	.	.	.	.	.	8b\	me
8BB/	#	.	.	.	.	16f#/LL	de
.	.	.	.	.	.	16g#/JJ	.
=30	=30	=30	=30	=30	=30	=30	=30
4C#/	6	.	.	2r	.	8a\	u-
.	.	.	.	.	.	16g#\	-te-
.	.	.	.	.	.	16a\	-ro
4D#X/	6 5	.	.	.	.	8ff#\	ma-
.	.	.	.	.	.	8a\	-tris
4E\	4	.	.	16E\	Con-	8a\	me-
.	.	.	.	16E\	-fi-	.	.
.	.	.	.	16G#\	-te-	8g#\	-a.
.	.	.	.	16B\	-bor	.	.
8E\L	3	.	.	16G#\	ti-	4r	.
.	.	.	.	16E\	-bi	.	.
8E\J	.	.	.	16G#\	qui-	.	.
.	.	.	.	16B\	-a	.	.
!LO:LB:g=original	!	!	!	!	!	!	!
=31	=31	=31	=31	=31	=31	=31	=31
!	!	!	!	!	!	!LO:TX:a:t=3.	!
8E\L	7	16r	16r	8d\	ter-	0r	.
.	.	16g#\LL	16b\LL	.	.	.	.
8E\	.	16b\	16dd\	8d\	-ri-	.	.
.	.	16ee\JJ	16gg#\JJ	.	.	.	.
!	!	!	!	!LO:TX:b:t=P:problem:podwójny przecinek jako łamanie sylab między systemami	!	!	!
!	!	!	!	!LO:SIC:v:custos d	!	!	!
!	!	!	!	!LO:LB:g=original	!	!	!
8E#X\	7	16gg#\LL	8bb\L	16d\	-bi-	.	.
.	.	16gg#\	.	16d\	-li-	.	.
8E#\J	6	16ff#\	8bb\J	16c#\	-ter	.	.
.	5	16cc#\JJ	.	16B\	ma-	.	.
8F#\L	.	8dd\L	8aa\L	16A\LL	-gni-	.	.
.	.	.	.	16B\JJ	.	.	.
8E#\J	6	16b\L	8gg#\J	8c#\	-fi-	.	.
.	.	16dd\JJ	.	.	.	.	.
4D\	7	4ryy	4ff#\	8.c#\	-ca-	.	.
.	6	.	.	16B\	-tus	.	.
=32	=32	=32	=32	=32	=32	=32	=32
4C#/	#	4g#/	4ee#X\	8c#\	es.	.	.
.	.	.	.	16c#\	Mi-	.	.
.	.	.	.	16B\	-ra-	.	.
4E#X\	6	8g#/L	4r	8c#\	-bi-	.	.
.	.	16a/L	.	16G#\	-li-	.	.
.	.	16b/JJ	.	16G#\	-a	.	.
4F#\	.	8a/L	8ff#\L	8A\	o-	.	.
.	.	16b/L	16cc#\L	16F#\	-pe-	.	.
.	.	16cc#/JJ	16ff#\JJ	16F#\	-ra	.	.
4BB/	.	8f#/L	8dd\L	8B\	tu-	.	.
.	.	8b/J	8ff#\J	16B\	-a,	.	.
.	.	.	.	16A\	et	.	.
=33	=33	=33	=33	=33	=33	=33	=33
4.C#/	#	8b/L	8.ee#X\L	8G#\	a-	1r	.
.	.	8b/	.	16G#\	-ni-	.	.
.	.	.	16dd#X\Jk	16F#\	-ma	.	.
.	.	8b/	8cc#\L	8E#X\	me-	.	.
8C#/	.	8b/J	8ff#\J	16C#\	-a	.	.
.	.	.	.	16C#\	co-	.	.
!	!	!	!	!LO:TX:b:t=P:problem:podwójny przecinek jako łamanie sylab między systemami	!	!	!
!	!	!	!	!LO:LB:g=original	!	!	!
8D/L	.	8a/L	8ff#\L	8F#\	-gno-	.	.
8BB/J	.	8b/J	8gg#\J	8D#X\	-scit	.	.
4C#/	#	4g#/	4ee#X\	4E#X\	ni-	.	.
!	!	!	!LO:LB:g=original	!	!	!LO:LB:g=original	!
=34	=34	=34	=34	=34	=34	=34	=34
4.F#\	.	4a/	4ff#\	4F#\	-mis,	16f#/LL	Non
.	2	.	.	.	.	16g#/JJ	.
.	.	.	.	.	.	16a/LL	est
.	.	.	.	.	.	16f#/JJ	.
.	.	4r	4r	4r	.	8g#\	oc-
8E\	6	.	.	.	.	8cc#\	-cul-
4D\	7	2r	2r	8F#\	et	8cc#\	-ta-
.	6	.	.	8F#\	ſub-	16b\	-tu(m)
.	.	.	.	.	.	16b\	os
4C#\	6	.	.	8E\	-sta(n)-	8b\	me-
.	.	.	.	16A\	-ti-	16a\	-u(m)
.	.	.	.	16A\	-a	16a\	à
!	!	!LO:LB:g=original	!	!	!	!	!
=35	=35	=35	=35	=35	=35	=35	=35
4BB/	7	0r	0r	8A\	me-	8dd\	te,
.	.	.	.	8A\	-a	16dd\	q(uo)d
.	6	.	.	.	.	16dd\	fe-
4.AA/	4	.	.	16E\	in	8dd\	-ci-
.	.	.	.	16E\	in-	.	.
.	3	.	.	16A\	-fe-	8cc#\	-sti
.	.	.	.	16G#\	-ri-	.	.
.	+4r 2	.	.	8F#\	-o-	8dd#X\	in
8GG#/	6	.	.	16B\	-ri-	8ee\	oc-
.	.	.	.	16B\	-bus	.	.
4C#/	7	.	.	8B\L	ter-	4ee\	-cul-
.	6\	.	.	8A#X\J	.	.	.
=36	=36	=36	=36	=36	=36	=36	=36
4BB/	.	.	.	4B\	-rae,	8dd#X\	-to,
.	.	.	.	.	.	16b\	im-
.	.	.	.	.	.	16a\	-per-
4E\	3	.	.	4r	.	8g#\	-fe-
.	6	.	.	.	.	8cc#\	-ctu(m)
4D#X\	7	.	.	4r	.	8cc#\	me-
.	6	.	.	.	.	16b\	-u(m)
.	.	.	.	.	.	16a\	vi-
4E\	.	.	.	8E\	di-	8g#\	-de-
.	.	.	.	8F#\	-es	8a\	-runt
!	!	!	!	!	!	!LO:SIC:v:custos b	!
!	!	!	!	!LO:LB:g=original	!	!LO:LB:g=original	!
=37	=37	=37	=37	=37	=37	=37	=37
8Dn/L	4 2	1r	1r	8G#\	for-	8b\	o-
8C#/J	6	.	.	8A\	-ma-	16cc#\	-cu-
.	.	.	.	.	.	16cc#\	-li
4BB/	7	.	.	8A\L	-bun-	4dd\	tu-
.	6	.	.	8G#\J	.	.	.
!LO:SIC:v:custos AA	!	!	!	!	!	!	!
!LO:LB:g=original	!	!	!	!	!	!	!
4AA/	.	.	.	8A,\	-t(ur),	8cc#\	-i,
.	.	.	.	16A\LL	et	16cc#\	et
.	.	.	.	16B\JJ	.	16dd\	in
!LO:TX:t=P:problem:mixed beam	!	!	!	!	!	!	!
8A\L	.	.	.	8c#\L	ne-	8ee\	li-
8AA/J	.	.	.	16B\L	.	16dd\LL	-bro
.	.	.	.	16A\JJ	.	16cc#\JJ	.
=38	=38	=38	=38	=38	=38	=38	=38
4E\	.	2r	2r	8G#,\	-mo	8b\	tu-
.	.	.	.	8E\	in	16ee\LL	-o
.	.	.	.	.	.	16cc#\JJ	.
8C#/L	6	.	.	8C#/L	e-	16a\LL	om-
.	.	.	.	.	.	16f#\JJ	.
8D#X/J	6	.	.	8D#X/J	.	16b\	-nes
.	.	.	.	.	.	16a\	scri-
4E\	.	4r	4r	4E\	-is.	8g#/	-be(n)-
.	.	.	.	.	.	8e/	-t(ur)
!	!	!	!	!LO:N:vis=16	!	!	!
8r	.	16r	16r	8r	.	8r	.
.	.	16g#/LL	16ee\LL	.	.	.	.
!LO:TX:a:t=T&colon;	!	!	!	!	!	!	!
8E\	.	16a/	16ff#\	16E\	Mi-	16ee\	Mi-
.	.	16b/JJ	16gg#\JJ	16E\	-hi	16ee\	-hi
=39	=39	=39	=39	=39	=39	=39	=39
8A\L	.	16cc#\LL	16aa\LL	16A\	au-	16cc#\	au-
.	.	16ee\	16ee\	16A\	-te(m)	16cc#\	-te(m)
!	!	!	!	!LO:TX:a:t=gis-	!	!	!
8G#\	.	16ee\	16bb\	16G# 16E\	ni-	16b\	ni-
.	.	16ee\JJ	16ee\JJ	16G# 16E\	-mis	16b\	-mis
8A\	.	16aa\LL	16ccc#\LL	16A\	ho-	16cc#\	ho-
.	.	16ee\	16ee\	16A\	-no-	16cc#\	-no-
8E\J	.	16gg#\	16bb\	16E\	-ri-	16ee\	-ri-
.	.	16ee\JJ	16ee\JJ	16E\	-fi-	16ee\	-fi-
8B\L	6	16bb\LL	16ddd\LL	16B\	-ca-	16dd\	-ca-
.	.	16ee\	16ee\	16B\	-ti	16dd\	-ti
!	!	!	!	!	!	!LO:LB:g=original	!
8E\	.	16gg#\	16bb\	16E\	ſunt	16b\	sunt
.	.	16ee\JJ	16ee\JJ	16E\	a-	16b\	a-
!	!	!	!	!LO:TX:b:t=P:problem:podwójny przecinek jako łamanie sylab między systemami	!	!	!
!	!	!	!	!LO:PB:g=original	!	!LO:TX:a:t=P:problem:dwie skreślone nuty	!
8c#\	6	16aa\LL	16eee\LL	16c#\	-mi-	16ee\	-mi-
.	.	16ee\	16ee\	16c#\	-ci	16ee\	-ci
8B\J	.	16gg#\	16ddd\	16B\	tu-	16dd\	tu-
.	.	16ee\JJ	16ee\JJ	16B\	-i	16dd\	-i
=40	=40	=40	=40	=40	=40	=40	=40
8A\L	.	16aa\LL	16ccc#\LL	8A\	De-	8cc#\	De-
.	.	16ee\	16ee\	.	.	.	.
8E\	.	16gg#\	16bb\	8E\	-us	8b\	-(us),
.	.	16ee\JJ	16ee\JJ	.	.	.	.
8A\	.	16ee\LL	16ccc#\LL	16A\	ni-	16cc#\	ni-
.	.	16ee\	16ee\	16A\	-mis	16cc#\	-mis
8G#\J	.	16ee\	16bb\	16G#\	con-	16ee\	co(m)-
.	.	16ee\JJ	16ee\JJ	16G#\	-for-	16ee\	-for-
!LO:TX:t=P:problem:mixed beam	!	!	!	!	!	!	!
8F#\L	7	16ee\LL	16aa\LL	8F#\	-ta-	8ee\	-ta-
.	.	16ee\	16ff#\	.	.	.	.
8BB/	7	16dd\	16dd\	16BB/	-tus	16dd\	-t(us)
.	.	16dd\JJ	16bb\JJ	16BB/	est	16dd\	est
8E\	7	16dd\LL	16gg#\LL	8E\	prin-	8dd\	prin-
.	.	16dd\	16ee\	.	.	.	.
8A\J	.	16cc#\	16cc#\	8A\	-ci-	8cc#\	-ci-
.	.	16cc#\JJ	16ee\JJ	.	.	.	.
!	!	!	!LO:LB:g=original	!	!	!	!
=41	=41	=41	=41	=41	=41	=41	=41
!	!	!	!LO:TX:t=P:problem:mixed beam	!	!	!	!
8F#\L	.	8cc#\L	8a/L	8F#\	-pa-	8cc#\	-pa-
8D\J	.	8b\J	16aa\L	16D\	-tus	16b\	-t(us)
.	.	.	16ff#\JJ	16D\	e-	16a\	e-
4E\	.	4b/	4gg#\	4E\	-o-	4g#\	-o-
!	!	!LO:SIC:v:custos a	!	!	!	!	!
!	!	!LO:LB:g=original	!	!	!	!	!
4AA/	.	8a/L	8aa\L	4AA/	-rum.	4a\	-rum,
.	.	16a/L	16cc#\L	.	.	.	.
.	.	16b/JJ	16dd\JJ	.	.	.	.
8r	.	8cc#\L	8ee\L	4r	.	8r	.
!LO:TX:a:t=S&colon;	!	!	!	!	!	!	!
8A\	.	8dd\J	8aa\J	.	.	8ee\	di-
=42	=42	=42	=42	=42	=42	=42	=42
!	!	!	!	!LO:TX:a:t=1.	!	!	!
4A\	.	8cc#/L	8ee\L	1r	.	8ee\	-nu-
.	.	16a/L	16cc#\L	.	.	16cc#\LL	-me-
.	.	16b/JJ	16dd\JJ	.	.	16dd\JJ	.
!	!	!	!	!	!	!LO:TX:b:t=P:problem:podwójny przecinek jako łamanie sylab między systemami	!
!	!	!	!	!	!	!LO:PB:g=original	!
8AA/L	.	8cc#\L	8ee\L	.	.	8ee\	-ra-
8D/J	.	8dd\J	8ff#\J	.	.	8ff#\	-bo
8AA/L	.	8cc#/L	8ee\L	.	.	8ee\	e-
8C#/J	.	8a/	8a\J	.	.	16a\	-os,
.	.	.	.	.	.	16a\	et
4D\	.	8a/	16ff#\LL	.	.	16ff#\LL	ſu-
.	.	.	16ee\	.	.	16ee\JJ	.
.	.	8a/J	16dd\	.	.	16dd\	-per
.	.	.	16ff#\JJ	.	.	16ff#\	a-
=43	=43	=43	=43	=43	=43	=43	=43
4C#/	6	8a/L	16ee\LL	2r	.	16ee\	-re-
.	.	.	16dd\	.	.	16dd\	-na(m)
.	.	8a/	16cc#\	.	.	16cc#\	mul-
.	.	.	16ee\JJ	.	.	16ee\	-ti-
8BB/L	.	8f#/	16dd\LL	.	.	16dd\LL	-pli-
.	.	.	16cc#\	.	.	16cc#\JJ	.
8D/J	.	8f#/J	16b\	.	.	16b\LL	-ca-
.	.	.	16a\JJ	.	.	16a\JJ	.
!LO:LB:g=original	!	!	!	!	!	!	!
4E\	.	8B/L	8g#/L	8r	.	8g#\	-bun-
.	.	8B/J	8e/J	16E\	ex-	8e/	-t(ur).
!	!	!	!	!LO:SIC:v:l:s=-sur-	!	!	!
.	.	.	.	16G#\	-ur-	.	.
!	!	!	!	!LO:TX:b:t=P:problem:podwójny przecinek jako łamanie sylab między systemami	!	!	!
!	!	!	!	!LO:SIC:v:custos B	!	!	!
!	!	!	!	!LO:LB:g=original	!	!	!
8G#\L	.	8r	8r	8B\	-re-	4r	.
8E\J	.	8f#/	16g#/LL	16B\	-xi,	.	.
.	.	.	16a/JJ	16c#\	et	.	.
=44	=44	=44	=44	=44	=44	=44	=44
4E#X\	7	8g#/L	8b/L	8d\	ad-	4r	.
.	6	8cc#/J	16a/L	16c#\	-huc	.	.
.	.	.	16g#/JJ	16B\	ſu(m)	.	.
4F#\	#	8f#/L	8a/L	8A\	te-	8r	.
.	.	8f#/J	8f#/J	8F#\	-cum.	16cc#\	Si
.	.	.	.	.	.	16b\	oc-
!	!	!	!LO:SIC:v:custos a#	!	!	!	!
!	!	!	!LO:LB:g=original	!	!	!	!
4E#\	4 2	8f#/L	8.a#X/L	2r	.	8a#X\	-ci-
.	.	8f#/	.	.	.	16a#\	-de-
.	.	.	16a#/Jk	.	.	16a#\	-ris
!	!	!	!	!	!	!LO:SIC:v:custos b	!
!	!	!	!	!	!	!LO:LB:g=original	!
4D\	6	8f#/	8b\L	.	.	16b\	De-
.	.	.	.	.	.	16b\	-us
.	.	8f#/J	16cc#\L	.	.	16cc#\	pec-
.	.	.	16dd\JJ	.	.	16dd\	-ca-
=45	=45	=45	=45	=45	=45	=45	=45
!	!	!	!LO:TX:t=P:problem:mixed beam	!	!	!LO:TX:t=P:problem:mixed beam	!
4AA#X/	6	8f#/L	8cc#\L	8r	.	16cc#\LL	-to-
.	.	.	.	.	.	16f#/JJ	.
.	.	8cc#/	8f#/J	16F#\	Qui-	8f#/	-res,
.	.	.	.	16G#\	-a	.	.
4FF#/	#	8a#X/	8cc#\L	16A#X\	di-	8r	.
.	.	.	.	16A#\	-ci-	.	.
.	.	8f#/J	16ff#\L	16A#\	-tis	16ff#\	vi-
.	.	.	16cc#\JJ	16A#\	in	16cc#\	-ri
4BB/	.	8f#/L	8dd\L	8B\	co-	8dd\	ſan-
.	.	8b/	16b\L	8B\	-gi-	16b\	-gui-
!	!	!	!	!	!	!LO:SIC:v:l:s=nu(m)	!
.	.	.	16cc#\JJ	.	.	16cc#\	-nu
4AAn/	.	8b/	8.ddT\L	8An\	-ta-	8dd\	de-
.	.	8b/J	.	8A\	-ti-	16cc#\LL	-cli-
.	.	.	(32cc#\LL	.	.	16dd\JJ	.
.	.	.	32dd\JJJ)	.	.	.	.
=46	=46	=46	=46	=46	=46	=46	=46
4GGn/	4 2	8cc#\L	8.eeT\L	4Gn\	-o-	8ee\	-na-
.	.	8cc#\	.	.	.	16dd\	-te
.	.	.	(32dd\LL	.	.	16ee\	ă
.	.	.	32ee\JJJ)	.	.	.	.
!LO:TX:t=P:problem:mixed beam	!	!	!	!	!	!	!
8FF#/L	6	8dd\	8ff#\L	8F#\	-ne	4ff#\	me.
8F#\J	.	8dd\J	8ff#\J	8F#\	ac-	.	.
4Gn\	7	8cc#\L	8ff#\L	16Gn\	-ci-	2r	.
.	.	.	.	16G\	-pi-	.	.
!	!	!	!	!LO:TX:b:t=P:problem:podwójny przecinek jako łamanie sylab między systemami	!	!	!
!	!	!	!	!LO:LB:g=original	!	!	!
.	6	16cc#\L	8ee\J	16Gn\	-ent	.	.
.	.	16b\JJ	.	16G\	in	.	.
!	!	!LO:SIC:v:custos a	!	!	!	!	!
!	!	!LO:LB:g=original	!	!	!	!	!
8F#\L	#	8a#X/L	8ee\L	16F#\	va-	.	.
.	.	.	.	16F#\	-ni-	.	.
8B\J	.	16b/L	16dd\L	16B\	-ta-	.	.
.	.	16f#/JJ	16cc#\JJ	16B\	-te	.	.
=47	=47	=47	=47	=47	=47	=47	=47
8Gn\L	.	8d/L	8b/L	16Gn\	ci-	2r	.
.	.	.	.	16G\	-vi-	.	.
8E\J	.	8gn/J	16cc#/L	16E\	-ta-	.	.
.	.	.	16dd/JJ	16E\	-tes	.	.
4F#\	#	16f#/LL	4a#X/	4F#\	tu-	.	.
.	.	16e/	.	.	.	.	.
.	.	16d/	.	.	.	.	.
.	.	16c#/JJ	.	.	.	.	.
!LO:TX:t=P:problem:mixed beam	!	!LO:TX:t=P:problem:mixed beam	!LO:TX:t=P:problem:mixed beam	!	!	!	!
8BB/L	.	8B/L	8b/L	8BB/	-as,	8r	.
!LO:TX:a:t=T&colon;	!	!	!	!	!	!	!
8B\	.	8dd\	8ff#\	16B\	no(n)-	16dd\	Non-
.	.	.	.	16B\	-ne	16dd\	-ne
8A\	.	8cc#\	8ff#\	8A,\	qui	8cc#\	qui
8A\J	.	8cc#\J	8ff#\J	8A\	o-	8cc#\	o-
!	!	!	!LO:LB:g=original	!	!	!	!
=48	=48	=48	=48	=48	=48	=48	=48
8G#X\L	6	8b\L	8ee\L	8G#X\	-de-	8b\	-de-
8F#\	.	16cc#\L	8ff#\	16F#\	-ru(n)t	16a\	-ru(n)t
.	.	16dd\JJ	.	16F#\	te	16a\	te
!	!	!	!	!	!	!LO:LB:g=original	!
8E\	.	8ee\L	8gg#\	8E\	Do-	8b\	Do-
8A\J	.	8ee\J	8aa\J	16A\	-mi-	16cc#\	-mi-
.	.	.	.	16A\	-ne	16cc#\	-ne
8B\L	7	8dd\L	8aa\L	8B\	o-	8dd\	o-
8E\	7	8ee\	8gg#\	8E\	-de-	16cc#\LL	-de-
.	.	.	.	.	.	16b\JJ	.
8A\	.	8ee\	8aa\	16A\	-ram,	16cc#\	-ram,
!	!	!	!	!LO:LB:g=original	!	!	!
.	.	.	.	16A\	et	16ee\	et
8d\J	.	8ff#\J	8aa\J	16d\	ſu-	16ff#\	ſu-
.	.	.	.	16d\	-per	16ff#\	-per
=49	=49	=49	=49	=49	=49	=49	=49
8c#\L	.	8ee\L	8aa\L	16c#\	i-	16ee\	i-
.	.	.	.	16c#\	-ni-	16ee\	-ni-
8A\J	.	8cc#\J	8aa\	16A\	-mi-	16cc#\	-mi-
.	.	.	.	16A\	-cos	16cc#\	-cos
8F#\L	6	8dd\L	8aa\	8F#\	tu-	8dd\	tu-
8G#\J	.	16ee\L	8bb\J	8G#\	-os	16ee\LL	-os
.	.	16dd\JJ	.	.	.	16dd\JJ	.
!LO:SIC:v:custos A	!	!	!	!	!	!	!
!LO:LB:g=original	!	!	!	!	!	!	!
8A\L	.	8cc#/L	8ee\L	8A\	ta-	8cc#\	ta-
8E\J	.	8b/J	16ff#\L	8E\	-be-	8b\	-be-
.	.	.	16gg#\JJ	.	.	.	.
4F#\	7	4a/	4aa\	4F#\	-sce-	4a\	-sce-
.	6\	.	.	.	.	.	.
=50	=50	=50	=50	=50	=50	=50	=50
4E\	.	8b/L	4gg#\	4E\	-bam.	4g#\	-bam,
.	.	8b/	.	.	.	.	.
!LO:TX:a:t=S&colon;	!	!	!	!	!	!	!
4D\	4 2	8g#/	8b\L	4r	.	8b\	per-
.	.	8g#/J	16cc#\L	.	.	16cc#\	-fe-
.	.	.	16dd\JJ	.	.	16dd\	-ctô
4C#/	6	8a/L	8ee\L	2r	.	8ee\	o-
.	.	8e/J	8a\J	.	.	16e/	-di
.	.	.	.	.	.	16e/	ô
4BB/	6	8g#/L	4dd\	.	.	8g#/	o-
.	.	16f#/L	.	.	.	16f#/	-de-
.	.	16g#/JJ	.	.	.	16g#/	-ram
!	!	!	!	!	!	!LO:LB:g=original	!
=51	=51	=51	=51	=51	=51	=51	=51
4AA/	.	8a/L	8cc#\L	16r	.	8a\	il-
.	.	.	.	16A\	Et	.	.
.	.	8A/J	8cc#\J	16A\	i-	8a\	-los.
.	.	.	.	16A\	-ni-	.	.
8D#X\L	6 5	8B/L	8f#/L	8A\	-mi-	4r	.
8E\J	.	8B/J	8g#/J	8G#\	-ci	.	.
!	!	!LO:LB:g=original	!	!	!	!	!
8BB/L	#	8d#X/L	8a/L	8F#\	fa-	2r	.
8C#/	.	8e/	16g#/L	16E\	-cti	.	.
.	.	.	16e/JJ	16E\	ſunt	.	.
8AA/	.	8e/	4f#/	4F#\	mi-	.	.
8BB/J	#	8d#/J	.	.	.	.	.
!	!	!	!	!LO:TX:b:t=P:problem:podwójny przecinek jako łamanie sylab między systemami	!	!	!
!	!	!	!	!LO:LB:g=original	!	!	!
=52	=52	=52	=52	=52	=52	=52	=52
4E\	.	4e/	4g#/	4E\	-hi.	8g#\	Pro-
.	.	.	.	.	.	16a\	-ba
.	.	.	.	.	.	16b\	me
4D#X\	6	4r	4r	4r	.	8f#/	De-
.	.	.	.	.	.	16f#/	-(us),
.	.	.	.	.	.	16f#/	et
8E\L	.	2r	2r	8r	.	8g#\	sci-
8C#\J	6\	.	.	8F#\	In-	16a#X\	-to
.	.	.	.	.	.	16a#\	cor
4BB/	#	.	.	8B\	-ter-	8b\	me-
.	.	.	.	16A\	-ro-	8b\	-um,
.	.	.	.	16B\	-ga	.	.
!	!	!	!LO:LB:g=original	!	!	!	!
=53	=53	=53	=53	=53	=53	=53	=53
4E\	.	0r	0r	8G#\	me,	8r	.
.	.	.	.	16B\	et	8g#\	et
.	.	.	.	16G#\	co-	.	.
4C#\	#	.	.	8E#X\	-gno-	8g#\	vi-
.	.	.	.	16F#\LL	-sce	16a\	-de
.	.	.	.	16G#\JJ	.	16g#\	si
8F#\L	.	.	.	8A\	se-	8f#/	vi-
8D\	.	.	.	16G#\	-mi-	16f#/	-a
.	.	.	.	16F#\	-tas	16f#/	i-
8BB\	6 5	.	.	4G#\	me-	8f#/	-ni-
8C#\J	#	.	.	.	.	8e#X/	-qui-
=54	=54	=54	=54	=54	=54	=54	=54
2F#\	.	.	.	4F#\	-as.	16f#/LL	-ta-
.	.	.	.	.	.	16g#/	.
.	.	.	.	.	.	16f#/	.
.	.	.	.	.	.	16g#/JJ	.
!	!	!	!	!	!	!LO:TX:b:t=P:problem:podwójny przecinek jako łamanie sylab między systemami	!
!	!	!	!	!	!	!LO:LB:g=original	!
.	.	.	.	4r	.	8a\	.
.	.	.	.	.	.	16f#/L	-tis
.	.	.	.	.	.	16g#/J	.
8D/L	.	.	.	8F#\	Glo-	8a\	in
8BB/J	6	.	.	16G#\	-ri-	8b\	me
.	.	.	.	16G#\	-a	.	.
4AA/	.	.	.	8A\	Pa-	8cc#\	e(st),
.	.	.	.	16A\	-tri,	8cc#\	et
.	.	.	.	16A\	et	.	.
=55	=55	=55	=55	=55	=55	=55	=55
8D/L	.	1r	1r	8F#\	Fi-	16a\	de-
.	.	.	.	.	.	16f#\	-duc
!	!	!	!	!LO:TX:b:t=P:problem:podwójny przecinek jako łamanie sylab między systemami	!	!	!
!	!	!	!	!LO:LB:g=original	!	!	!
8C#/J	.	.	.	16E\	-li-	16g#\	me
.	.	.	.	16E\	-o,	16a\	in
8BB/L	.	.	.	8D\	et	8b\	vi-
16C#/L	.	.	.	8D\	ſpi-	16a\	-a
16D/JJ	.	.	.	.	.	16a\	ae-
8E\L	.	.	.	8E\	-ri-	(4a\	-ter-
8D\J	.	.	.	16D\	-tu-	.	.
.	.	.	.	16D\	-i	.	.
4E\	.	.	.	4E\	ſanc-	4g#\)	.
!LO:LB:g=original	!	!	!	!	!	!	!
=56	=56	=56	=56	=56	=56	=56	=56
!LO:TX:t=P:problem:mixed beam	!	!	!	!	!	!	!
8AA/L	.	8r	8r	8AA/	-to,	8a\	-na.
!LO:TX:a:t=T&colon;	!	!	!	!	!	!	!
8A\	.	16ee\LL	16aa\LL	16A\	ſi-	16cc#\	Si-
.	.	16aa\JJ	16ee\JJ	16A\	-cut	16cc#\	-cut
8G#\	6	16ee\LL	16bb\LL	16G#\	e-	16b\	e-
.	.	16bb\	16ee\	16G#\	-rat	16b\	-rat
8c#\J	.	16ee\	16eee\	16c#\	in	16ee\	in
.	.	16aa\JJ	16ee\JJ	16c#\	prin-	16ee\	prin-
8B\L	6	16ee\LL	16ddd\LL	16B\	-ci-	16dd\	-ci-
.	.	16gg#\	16ee\	16B\	-pi-	16dd\	-pi-
8A\	.	16ee\	16ccc#\	16A\	-o,	16cc#\	-o,
.	.	16aa\JJ	16ee\JJ	16A\	et	16cc#\	et
8G#\	6	16ee\LL	16bb\LL	8G#\	nunc,	8b\	nu(n)c
.	.	16bb\	16ee\	.	.	.	.
8A\J	.	16ee\	16ccc#\	8A\	et	8cc#\	et
.	.	16ccc#\JJ	16ee\JJ	.	.	.	.
=57	=57	=57	=57	=57	=57	=57	=57
8G#\L	6	16ee\LL	16bb\LL	8G#\L	ſem-	8b\L	ſem-
.	.	16bb\	16ee\	.	.	.	.
8F#\	.	16ee\	16aa\	8F#\J	.	8a\J	.
.	.	16aa\JJ	16ee\JJ	.	.	.	.
!	!	!	!	!	!	!LO:LB:g=original	!
8E\	.	8ee\L	8gg#\L	8E\	-per,	8g#\	-per,
8E\J	.	8b\J	8ee\J	16E\	et	16b\	et
.	.	.	.	16E\	in	16b\	in
!	!	!	!	!LO:LB:g=original	!	!	!
16A\LL	.	16cc#\LL	8ee\	16A\LL	ſae-	16cc#\LL	ſae-
16B\	.	16dd\	.	16B\JJ	.	16dd\JJ	.
16c#\	.	16ee\	4aa\	16c#\	-cu-	16ee\	-cu-
16B\JJ	.	16dd\JJ	.	16B\	-la	16dd\	-la
8A\L	.	8cc#/L	.	8A\	ſae-	8cc#\	ſae-
8G#\J	.	8b/J	8bb\	8G#\	-cu-	8b\	-cu-
=58	=58	=58	=58	=58	=58	=58	=58
16F#\LL	.	16a/LL	8ccc#\L	16F#\LL	-lo-	8a\	-lo-
16G#\	.	16b/	.	16G#\	.	.	.
16A\	.	16cc#/	8ff#\J	16A\	.	8a\	-rum
16F#\JJ	.	16a/JJ	.	16F#\JJ	.	.	.
*	*	*	*	*	*	*	*ij
8G#\L	6	8b/L	8bb\L	8G#\	.	8b\	ſae-
8A\J	.	8cc#/J	16aa\L	8A\	-rum	8cc#\	-cu-
.	.	.	16gg#\JJ	.	.	.	.
16B\LL	.	16dd\LL	8ff#\L	16B\LL	a-	4.dd\	-lo-
16c#\	.	16ee\	.	16c#\	.	.	.
16d\	.	16ff#\	8ff#\	16d\	.	.	.
16c#\JJ	.	16ee\JJ	.	16c#\JJ	.	.	.
!	!	!LO:SIC:v:custos dd	!	!	!	!	!
!	!	!LO:LB:g=original	!	!	!	!	!
8B\L	6	8dd\L	8gg#\	8B\	.	.	.
*	*	*	*	*	*ij	*	*
8A\J	.	8cc#\J	8aa\J	8A\	-men	8cc#\	-rum
*	*	*	*	*	*Xij	*	*Xij
!LO:SIC:v:custos G	!	!	!	!	!	!	!
!LO:LB:g=original	!	!	!LO:LB:g=original	!	!	!	!
=59	=59	=59	=59	=59	=59	=59	=59
8G#\L	6	16b\LL	8bb\L	8G#\L	a-	16b\LL	A-
.	.	16cc#\	.	.	.	16cc#\	.
8E\	.	16dd\	16aa\L	8E\J	.	16dd\	.
.	.	16b\JJ	16gg#\JJ	.	.	16b\JJ	.
8A\	.	8cc#\L	8aa\L	8A,\	-men	8cc#\	.
*	*	*	*	*	*ij	*	*
8D\J	.	8ff#\J	8ff#\J	(8D\	a-	8b,\	-men
*	*	*	*	*	*	*2\right	*ij
2E\	.	4ee\	4aa\	2E\)	.	2b\	A-
.	.	4b/	4gg#\	.	.	.	.
=60	=60	=60	=60	=60	=60	=60	=60
*	*	*2\right	*2\right	*	*	*	*
2AA/	.	2cc#\	2aa\	2AA,/	-men	2a,\	-men
*	*	*	*	*	*Xij	*	*Xij
2D/	.	2dd\	4ff#\	2D/	a-	(4a\	A-
.	.	.	4gg#\	.	.	4b\)	.
=61	=61	=61	=61	=61	=61	=61	=61
1AA	.	1ee	1aa	1AA	-men.	1cc#	-men.
==;;	==	==;;	==	==;;	==	==;;	==
*-	*-	*-	*-	*-	*-	*-	*-
!!!system-decoration: [g1][g2]s5
!!!RDF**kern: > = above
!!!ENC: Marta Lawrence
!!!END: 2020-12-31
!!!ENC: Marta Chmielewska
!!!END: 2020-06-26
